apps/reference/static/img/libraries/flutter-icon.svg

<svg width="166" height="202" viewBox="0 0 166 202" fill="none" xmlns="http://www.w3.org/2000/svg">
<path d="M37.7001 128.9L9.80005 101L100.4 10.4H156.2" fill="#44D1FD"/>
<path d="M156.2 94H100.4L79.5 114.9L107.4 142.8" fill="#44D1FD"/>
<path d="M79.5 170.7L100.4 191.6H156.2L107.4 142.8" fill="#08589C"/>
<path d="M79.5214 114.957L51.6616 142.816L79.5214 170.676L107.381 142.816L79.5214 114.957Z" fill="#1FBCFD"/>
<path d="M107.381 142.816L79.5212 170.676L83.4103 174.565L111.27 146.705L107.381 142.816Z" fill="url(#paint0_linear_1305_4318)"/>
<path d="M79.5 170.7L120.9 156.4L107.4 142.8" fill="url(#paint1_linear_1305_4318)"/>
<defs>
<linearGradient id="paint0_linear_1305_4318" x1="79.5212" y1="170.676" x2="83.4103" y2="174.565" gradientUnits="userSpaceOnUse">
<stop offset="0.2" stop-opacity="0.15"/>
<stop offset="0.85" stop-color="#616161" stop-opacity="0.01"/>
</linearGradient>
<linearGradient id="paint1_linear_1305_4318" x1="79.5" y1="142.8" x2="120.9" y2="142.8" gradientUnits="userSpaceOnUse">
<stop offset="0.2" stop-opacity="0.26"/>
<stop offset="0.85" stop-color="#616161" stop-opacity="0.01"/>
</linearGradient>
</defs>
</svg>

<svg xmlns="http://www.w3.org/2000/svg" viewBox="0 0 166 202"><defs><linearGradient id="b"><stop offset="20%" stop-opacity=".55"/><stop offset="85%" stop-color="#616161" stop-opacity=".01"/></linearGradient><linearGradient id="a" x1="0%" x2="0%" y1="0%" y2="100%"><stop offset="20%" stop-opacity=".15"/><stop offset="85%" stop-color="#616161" stop-opacity=".01"/></linearGradient></defs><path fill="#42A5F5" fill-opacity=".8" d="M37.7 128.9 9.8 101l90.6-90.6h55.8M156.2 94h-55.8l-20.9 20.9 27.9 27.9"/><path fill="#0D47A1" d="m79.5 170.7 20.9 20.9h55.8l-48.8-48.8"/><path fill="#42A5F5" d="m51.662 142.816 27.86-27.86 27.86 27.86-27.86 27.86z"/><path fill="url(#a)" d="M59.8 162.5h39.4v5.5H59.8z" transform="rotate(-45.001 79.53 142.782)"/><path d="m79.5 170.7 41.4-14.3-13.5-13.6" fill="url(#b)"/></svg>
